X:1
T:Marylebone, 87.87.87 D
T:Marylebone, 87.87.87 D
T:George Coles Stebbins, 1894
T:Public Domain Courtesy of the Cyber Hymnal™
C:George Coles Stebbins, 1894
Z:Public Domain
Z:Courtesy of the Cyber Hymnal™
%%score ( 1 2 ) ( 3 4 )
L:1/8
Q:1/4=84
M:2/4
K:Eb
V:1 treble 
V:2 treble 
V:3 bass 
V:4 bass 
V:1
 [EG]>[FA] | [GB][GB] [GB][GB] | [Ac][GB] [EG][GB] | [Ge][Ge] [Bd]>[Ac] | [GB]3 [GB]/[GB]/ | %5
 [FA][FA] [GB][FA] | [EG][EG] [GB][Ge] | [Fd][DB] [Ec]>[DB] | !fermata![DB]2 [DB]>[DB] | %9
 [Fd][Fd] [Fc][Fd] | [Ee][EB] [EB]>[EG] | [DA][DA] [DB]>[DA] | [EG]2 [EG]>[DA] | %13
 [EB][GB] [Ee][GB] | [Ac]!fermata![Ae] [Ed]>[Ec] | [EB][EG] [EG]>[DF] | !fermata!E2 [_DE]>[DE] | %17
 [CE][Ec] [Ec][Ec] | [Ec]!fermata![Ae] [Bd]>[Ac] | [Ac][GB] [GB]>[^F=A] | [GB]2 [EG]>[DA] | %21
 [EB][Ge] [Ee][GB] | [Ac]!fermata![Ae] [Ed]>[Ec] | [EB][EG] [EG]>[DF] | !fermata!E2 |] %25
V:2
 x2 | x4 | x4 | x4 | x4 | x4 | x4 | x4 | x4 | x4 | x4 | x4 | x4 | x4 | x4 | x4 | E2 x2 | x4 | x4 | %19
 x4 | x4 | x4 | x4 | x4 | E2 |] %25
V:3
 [E,B,]>[E,B,] | [E,E][E,E] [E,E][E,E] | [E,E][E,E] [E,B,][E,B,] | [E,B,][E,B,] [E,B,]>[E,E] | %4
 [E,E]3 [E,B,]/[E,B,]/ | [B,,B,][B,,B,] [B,,B,][B,,B,] | [E,B,][E,B,] [E,E][E,B,] | %7
 [F,B,][F,B,] [F,=A,]>[F,B,] | !fermata![B,,B,]2 B,>B, | [A,B,][A,F] [A,E][A,B,] | %10
 [G,B,][G,E] [G,B,]>[E,B,] | [F,B,][F,B,] [B,,F,]>[B,,B,] | [E,B,]2 [E,B,]>[F,B,] | %13
 [G,E][E,E] [G,B,][E,E] | [A,E]!fermata![A,C] [A,,B,]>[A,,A,] | [B,,G,][B,,B,] [B,,B,]>[B,,A,] | %16
 !fermata![E,G,]2 [E,G,]>[E,G,] | A,A, A,A, | A,!fermata![A,C] [A,E]>[CE] | %19
 [E,E][E,E] [E,E]>[E,E] | [E,E]2 [E,B,]>[F,B,] | [G,E][E,B,] [G,B,][E,E] | %22
 [A,E]!fermata![A,C] [A,,B,]>[A,,A,] | [B,,G,][B,,B,] [B,,B,]>[B,,A,] | !fermata![E,G,]2 |] %25
V:4
 x2 | x4 | x4 | x4 | x4 | x4 | x4 | x4 | x2 B,>B, | x4 | x4 | x4 | x4 | x4 | x4 | x4 | x4 | %17
 A,A, A,A, | A, x3 | x4 | x4 | x4 | x4 | x4 | x2 |] %25

